icon-themes/breeze_svg/cmd/lc_orientation.svg

<svg viewBox="0 0 24 24" xmlns="http://www.w3.org/2000/svg"><path d="m4.9980469 4.0429688v16.0000002l.0039062.001953h1 11.9999999 1v-10.5937501-1.40625-.0097657l-3.992187-3.9921874-.011719.0097656v-.0097656h-1-8.0000001zm1 1h8.0000001v3 1h4v10.0000002h-12.0000001z" fill="#4d4d4d"/></svg>

<svg xmlns="http://www.w3.org/2000/svg" viewBox="0 0 24 24">
 <path 
     style="fill:#4d4d4d" 
     d="M 4.9980469 4.0429688 L 4.9980469 20.042969 L 5.0019531 20.044922 L 6.0019531 20.044922 L 18.001953 20.044922 L 19.001953 20.044922 L 19.001953 9.4511719 L 19.001953 8.0449219 L 19.001953 8.0351562 L 15.009766 4.0429688 L 14.998047 4.0527344 L 14.998047 4.0429688 L 13.998047 4.0429688 L 5.9980469 4.0429688 L 4.9980469 4.0429688 z M 5.9980469 5.0429688 L 13.998047 5.0429688 L 13.998047 8.0429688 L 13.998047 9.0429688 L 17.998047 9.0429688 L 17.998047 19.042969 L 5.9980469 19.042969 L 5.9980469 5.0429688 z "
     />
 </svg>
